X:1
T:Mazurka
T:Mazurka.
T:F. CHOPIN. Op. 33, Nº 2.
T:Public Domain
T:Public Domain
T:Public Domain
T:Public Domain
T:Public Domain
T:Public Domain
T:Public Domain
T:Public Domain
C:Frédéric Chopin
Z:Public Domain
%%score { ( 1 2 4 ) | ( 3 5 ) }
L:1/8
Q:1/4=180
M:3/4
K:D
V:1 treble nm="Piano"
V:2 treble 
V:4 treble 
V:3 bass 
V:5 bass 
V:1
!f!"^Vivace." !>!A2- | (Acdefg |{fg} f2 edcB | Ad (3ded cB) | (!>!c4 A2) | (Acdefg |{fg} f2 edcB) | %7
 (Ac (3cdc BA) | !>!d6 |!pp! (Acdefg |{fg} f2 edcB) | (Ad (3ded cB) | (!>!c4 A2) | (Acdefg | %14
{fg} f2 edcB) | (Ac (3cdc BA) | !>!d6 |!f! (E^GABcd |{cd} c2 BA^GF) | (EA (3ABA ^GF) | %20
 (!>!^G4 E2) | (E^GABcd |{cd} c2 BA^GF) | (E^G (3GAG FE) | !>!A6 |!pp! (E^GABcd |{cd} c2 BA^GF) | %27
 (EA (3ABA ^GF) | (!>!^G4 E2) | (E^GABcd |{cd} c2 BA^GF) | (E^G (3GAG FE) | !>!A6- |!ff! A(cdefg | %34
{fg} f2 edcB) | (Ad (3ded cB) | (!>!c4 A2) | (Acdefg |{fg} f2 edcB) | (Ac (3cdc BA) | !>!d6 | %41
!pp! (Acdefg |{fg} f2 edcB) | (Ad (3ded cB) | (!>!c4 A2) | (Acdefg |{fg} f2 edcB) | (Ac (3cdc BA) | %48
 d6- ||[K:Bb]!<(! (d>d e2!<)! =e2 |!>(! g>f c2!>)! c2 | d>)(d e2 =e2 | g>f c2 f2) | %53
!f! [B=eb]z/([Beb]/ [Beb]2 [Beb]2 | [Bfb])z/([Bfb]/ [Bfb]2 [Bfa]2) | %55
 [B=ea]z/([Bea]/ [Bea]2 [Beg]2) | [A_eg]z/([Aeg]/ [Aeg]2 [Aef]2 | d>)(d e2 =e2 | _g>f c2 c2 | %59
 _d>)(d e2 =e2 | _g>f [_A_d_a]2 [d_d']2) |!ff! .[_Gc_g]z/([Gcg]/ [Gcg]2 [Gcg]2) | %62
 .[_G_d_g]z/([Gdg]/ [Gdg]2 [Fdf]2) | .[_Gcf]z/([Gcf]/ [Gcf]2 [Gce]2) | %64
 .[_Ge]z/([G_Ae]/ [Ge]2 [F_d]2) |:!f! (3([^G=d]D[Gd]- d2) !>!d2 | (3([Ad]D[Ad]- d3 ^c) | %67
 (3([^Gd]D[Gd]- d2) !>!d2 | (3([Ad]D[Ad]- d3 ^c) | (3([^Gd]D[Gd]- d2) !>!d2 | %70
 (3([Ad]D[Ad]- d3 ^c) | (3([^Gd]D[Gd]- d2) !>!d2 |1 (3([Ad]D[Ad]- d3 ^c) :|2 %73
 (3([=Gd]D[Gd]- d3 ^c) ||[K:D]!f! (Acdefg |{fg} f2 edcB) | (Ad (3ded cB) | (c4 A2) | (Acdefg | %79
{fg} f2 edcB) | (Ac (3cdc BA) | !>!d6 |!pp! (Acdefg |{fg} f2 edcB) | (Ad (3ded cB) | (!>!c4 A2) | %86
 (Acdefg |{fg} f2 edcB) | (Ac (3cdc BA) | !>!d6 |!f! (E^GABcd |{cd} c2 BA^GF) | (EA (3ABA ^GF) | %93
 (!>!^G4 E2) | (E^GABcd |{cd} c2 BA^GF) | (E^G (3GAG FE) | !>!A6 |!pp! (E^GABcd |{cd} c2 BA^GF) | %100
 (EA (3ABA ^GF) | (!>!^G4 E2) | (E^G!<(!ABcd |{cd} c2!<)!!>(! BA^GF)!>)! | (E^G (3GAG FE) | %105
 !>!A6- |!ff! (Acdefg |{fg} f2 edcB) | (Ad (3ded cB) | (!>!c4 A2) | (Acdefg |{fg} f2 edcB) | %112
 (Ac (3cdc BA) | !>!d6 |!pp! (Acdefg |{fg} f2 edcB) | (Ad (3ded cB) | (!>!c4 A2) | (Acdefg | %119
{fg} f2 edcB) | (Ac (3cdc BA) | !>!d6 | d6 | d6 | d6 | %125
"^-          -          -          -          -          -         -         -          -          -          -          -          -         -" d6 | %126
 A6 | A6 | A6 | A6 |"^smorzando.     -" D6 | %131
"^-          -          -          -          -          -         -         -          -          -         -" D6 | %132
 D6 | D6 | D2 [DA]2 (da |!8va(!!<(! .d'.f'.^g'.a'.b'.c'' | !fermata!d''6)!8va)!!<)! |] %137
V:2
 z2 | F2 F2 !>!F2 | z2 G2 !>!G2 | z2 F2 !>!F2 | z2 [EA]2 !>!G2 | z2 F2 !>!F2 | z2 G2 !>!G2 | %7
 z2 G2 !>!G2 | z2 F2 !>!F2- | F2 F2 !>!F2 | z2 G2 !>!G2 | z2 F2 !>!F2 | z2 [EA]2 !>!G2 | %13
 z2 F2 !>!F2 | z2 G2 !>!G2 | z2 G2 !>!G2 | z2 F2 !>!F2 | z2 C2 !>!C2 | z2 D2 !>!D2 | z2 C2 !>!C2 | %20
 z2 [B,E]2 !>!D2 | z2 C2 !>!C2 | z2 D2 !>!D2 | z2 D2 !>!D2 | z2 C2 !>!C2- | C2 C2 C2 | z2 D2 D2 | %27
 z2 C2 C2 | z2 [B,E]2 D2 | z2 C2 C2 | z2 D2 D2 | z2 D2 D2 | z2 C2 [C=G]2 | F2 F2 !>!F2 | %34
 z2 G2 !>!G2 | z2 F2 !>!F2 | z2 [EA]2 !>!G2 | z2 F2 !>!F2 | z2 G2 !>!G2 | z2 G2 !>!G2 | %40
 z2 F2 !>!F2- | F2 F2 F2 | z2 G2 G2 | z2 F2 F2 | z2 [EA]2 G2 | z2 F2 F2 | z2 G2 G2 | z2 G2 G2 | %48
 z2 F2 (F2 ||[K:Bb] =F4) B2- | B2 AG F2- | F2 [FB]2 [F-B]2 | [Fc]2 F2 A2 | x6 | x6 | x6 | x6 | %57
 z2 [FB]2 [FB]2 | z2 (F>_G F2) | z2 [FB]2 [FB]2 | z2 x4 | x6 | x6 | x6 | x2 _A4 |: x2 !>!D2 D2 | %66
 x2 !>!D3 ^C | x2 !>!D2 D2 | x2 !>!D3 ^C | x2 D2 D2 | x2 D3 ^C | x2 D2 D2 |1 x2 !>!D3 ^C :|2 %73
 x2 (D2 ^C2) ||[K:D] z2 F2 F2 | z2 G2 !>!G2 | z2 F2 !>!F2 | z2 [EA]2 !>!G2 | z2 F2 !>!F2 | %79
 z2 G2 !>!G2 | z2 G2 !>!G2 | z2 F2 !>!F2- | F2 F2 F2 | z2 G2 G2 | z2 F2 F2 | z2 [EA]2 G2 | %86
 z2 F2 F2 | z2 G2 G2 | z2 G2 G2 | z2 F2 F2 | z2 C2 C2 | z2 D2 !>!D2 | z2 C2 !>!C2 | %93
 z2 [B,E]2 !>!D2 | z2 C2 !>!C2 | z2 D2 !>!D2 | z2 D2 !>!D2 | z2 C2 !>!C2- | C2 C2 C2 | z2 D2 D2 | %100
 z2 C2 C2 | z2 [B,E]2 D2 | z2 C2 C2 | z2 D2 D2 | z2 D2 D2 | z2 C2 C2 | F2 F2 !>!F2 | z2 G2 !>!G2 | %108
 z2 F2 !>!F2 | z2 [EA]2 !>!G2 | z2 F2 !>!F2 | z2 G2 !>!G2 | z2 G2 G2 | z2 F2 !>!F2- | F2 F2 F2 | %115
 z2 G2 G2 | z2 F2 F2 | z2 [EA]2 G2 | z2 F2 F2 | z2 G2 G2 | z2 G2 G2 | z2 F2 F2 | %122
 (FA)"^accelerando.     -          -          -          -          -          -         -" A{/B}A (^G^E) | %123
 (=E=G) G{/A}G (FD) | (FA) A{/B}A (^G^E) | (=E=G) G{/A}G F2 | (DF) F{/G}F (EB,) | %127
 (CE) E{/F}E (DA,) | (DF) F{/G}F (EB,) | (CE) E{/F}E (DA,) | %130
[I:staff +1] (F,A,) A,{/B,}A, (^G,^E,) | (=E,=G,) G,{/A,}G, (F,D,) | (F,A,) A,{/B,}A, (^G,^E,) | %133
 x6 | x6 |!8va(! x6 | x6!8va)! |] %137
V:3
 z2 |!ped! .D,2 [D,A,D]2 [D,A,D]2!ped-up! |!ped! .A,,2 .[E,A,C]2 .[E,A,C]2!ped-up! | %3
!ped! D,,2 [D,A,D]2 [D,A,D]2!ped-up! |!ped! .A,,2 A,2 [A,E]2!ped-up! | %5
!ped! D,2 [A,D]2 [D,A,D]2!ped-up! |!ped! .G,,2 [B,E]2 [E,B,E]2!ped-up! | %7
!ped! A,,2 [A,E]2 [A,E]2!ped-up! |!ped! D,,2 [D,A,D]2 [D,A,D]2-!ped-up! | %9
!ped! [D,A,D]2 [D,A,D]2 [D,A,D]2!ped-up! |!ped! A,,2 [E,A,C]2 [E,A,C]2!ped-up! | %11
!ped! .D,,2 [D,A,D]2 [D,A,D]2!ped-up! |!ped! .A,,2 [A,C]2 [A,-E]2!ped-up! | %13
!ped! [D,A,]2 [A,D]2 [D,A,D]2!ped-up! |!ped! .G,,2 [B,E]2 [E,B,E]2!ped-up! | %15
!ped! A,,2 [A,E]2 [A,E]2!ped-up! |!ped! .D,,2 [D,A,D]2 [D,A,D]2!ped-up! | %17
!ped! A,,2 [A,,E,A,]2 [A,,E,A,]2!ped-up! |!ped! E,,2 [E,B,]2 [E,B,]2!ped-up! | %19
!ped! A,,,2 [A,,E,A,]2 [A,,E,A,]2!ped-up! |!ped! E,,2 E,2 [E,B,]2!ped-up! | %21
!ped! .A,,2 [E,A,]2 [A,,E,A,]2!ped-up! |!ped! D,,2 [F,B,]2 [B,,F,B,]2!ped-up! | %23
!ped! .E,,2 [E,B,]2 [E,B,]2!ped-up! |!ped! .A,,,2 [A,,E,A,]2 [A,,E,A,]2-!ped-up! | %25
!ped! [A,,E,A,]2 [A,,E,A,]2 [A,,E,A,]2!ped-up! |!ped! E,,2 [E,B,]2 [E,B,]2!ped-up! | %27
!ped! A,,,2 [A,,E,A,]2 [A,,E,A,]2!ped-up! |!ped! E,,2 E,2 [E,-B,]2!ped-up! | %29
!ped! .[A,,E,]2 [E,A,]2 [A,,E,A,]2!ped-up! |!ped! .D,,2 [F,B,]2 [B,,F,B,]2!ped-up! | %31
!ped! .E,,2 [E,B,]2 [E,B,]2!ped-up! |!ped! .A,,,2 [A,E]2 [A,E]2!ped-up! | %33
!ped! D,2 [D,A,D]2 [D,A,D]2!ped-up! |!ped! .A,,2 [E,A,C]2 [E,A,C]2!ped-up! | %35
!ped! D,,2 [D,A,D]2 [D,A,D]2!ped-up! |!ped! .A,,2 A,2 [A,E]2!ped-up! | %37
!ped! D,2 [A,D]2 [D,A,D]2!ped-up! |!ped! .G,,2 [B,E]2 [E,B,E]2!ped-up! | %39
!ped! A,,2 [A,E]2 [A,E]2!ped-up! |!ped! D,,2 [D,A,D]2 [D,A,D]2-!ped-up! | %41
!ped! [D,A,D]2 [D,A,D]2 [D,A,D]2!ped-up! |!ped! A,,2 [E,A,C]2 [E,A,C]2!ped-up! | %43
!ped! D,,2 [D,A,D]2 [D,A,D]2!ped-up! |!ped! A,,2 [A,C]2 [A,-E]2!ped-up! | %45
!ped! [D,A,]2 [A,D]2 [D,A,D]2!ped-up! |!ped! G,,2 [B,E]2 [E,B,E]2!ped-up! | %47
!ped! A,,2 [A,E]2 [A,E]2!ped-up! |!ped! D,,2 [D,A,D]2 [D,A,D]2!ped-up! || %49
[K:Bb]!ped! B,,2 [F,B,D]2 [F,B,D]2!ped-up! |!ped! F,,2 [F,C_E]2!ped-up! [F,A,E]2 | %51
!ped! B,,2 [F,B,D]2 [F,B,D]2!ped-up! |!ped! A,,2 [A,C]>(G,, F,,2)!ped-up! | %53
!ped! [C,,C,]2 [CG]2 z2!ped-up! |!ped! .F,,z/(=B,<CD/ C2)!ped-up! |!ped! C,z/(=B,<CD/ C2)!ped-up! | %56
!ped! F,z/(=B,<C=E/ F2)!ped-up! |!ped! _B,,2 [F,B,D]2 [F,B,D]2!ped-up! | %58
!ped! A,,2 [F,C_E]2!ped-up! [F,CE]2 |!ped! B,,2 [F,B,_D]2 [F,B,D]2!ped-up! | %60
"^cresc."!ped! _A,,2 [F,_A,_DF]>(B,, A,,2)!ped-up! |!ped! _A,,,2 [_A,E]2 z2!ped-up! | %62
!ped! _D,,z/(=G,<_A,B,/ A,2)!ped-up! |!ped! ._A,,z/(=G,<_A,__B,/ A,2)!ped-up! | %64
!ped! _D,z/(=G,<!ped-up!_A,C/ _D2) |:!ped! ^E,,2 [^E,=B,]2 [E,B,]2!ped-up! | %66
!ped! ^F,,2 [^F,A,]2 [F,A,]2!ped-up! |!ped! ^E,,2 [^E,=B,]2 [E,B,]2!ped-up! | %68
!ped! ^F,,2 [^F,A,]2 [F,A,]2!ped-up! |!ped! =E,,2 [=E,=B,]2 [E,B,]2!ped-up! | %70
!ped! A,,2 [=E,A,]2 [E,A,]2!ped-up! |!ped! =E,,2 [=E,=B,]2 [E,B,]2!ped-up! |1 %72
!ped! A,,2 [=E,A,]2 [E,A,]2!ped-up! :|2!ped! A,,2 [A,=E]2 [A,E]2!ped-up! || %74
[K:D]!ped! D,2 [D,A,D]2 [D,A,D]2!ped-up! |!ped! A,,2 [E,A,C]2 [E,A,C]2!ped-up! | %76
!ped! D,,2 [D,A,D]2 [D,A,D]2!ped-up! |!ped! A,,2 A,2 [A,E]2!ped-up! | %78
!ped! D,2 [A,D]2 [D,A,D]2!ped-up! |!ped! .G,,2 [B,E]2 [E,B,E]2!ped-up! | %80
!ped! A,,2 [A,E]2 [A,E]2!ped-up! |!ped! D,,2 [D,A,D]2 [D,A,D]2-!ped-up! | %82
!ped! [D,A,D]2 [D,A,D]2 [D,A,D]2!ped-up! |!ped! A,,2 [E,A,C]2 [E,A,C]2!ped-up! | %84
!ped! D,,2 [D,A,D]2 [D,A,D]2!ped-up! |!ped! .A,,2 [A,C]2 [A,-E]2!ped-up! | %86
!ped! [D,A,]2 [A,D]2 [D,A,D]2!ped-up! |!ped! .G,,2 [B,E]2 [E,B,E]2!ped-up! | %88
!ped! A,,2 [A,E]2 [A,E]2!ped-up! |!ped! .D,,2 [D,A,D]2 [D,A,D]2!ped-up! | %90
!ped! A,,2 [A,,E,A,]2 [A,,E,A,]2!ped-up! |!ped! E,,2 [E,B,]2 [E,B,]2!ped-up! | %92
!ped! A,,,2 [A,,E,A,]2 [A,,E,A,]2!ped-up! |!ped! E,,2 E,2 [E,B,]2!ped-up! | %94
!ped! A,,2 [E,A,]2 [A,,E,A,]2!ped-up! |!ped! .D,,2 [F,B,]2 [B,,F,B,]2!ped-up! | %96
!ped! .E,,2 [E,B,]2 [E,B,]2!ped-up! |!ped! A,,,2 [A,,E,A,]2 [A,,E,A,]2-!ped-up! | %98
!ped! [A,,E,A,]2 [A,,E,A,]2 [A,,E,A,]2!ped-up! |!ped! E,,2 [E,B,]2 [E,B,]2!ped-up! | %100
!ped! A,,,2 [A,,E,A,]2 [A,,E,A,]2!ped-up! |!ped! E,,2 E,2 [E,-B,]2!ped-up! | %102
!ped! .[A,,E,]2 [E,A,]2 [A,,E,A,]2!ped-up! |!ped! .D,,2 [F,B,]2 [B,,F,B,]2!ped-up! | %104
!ped! .E,,2 [E,B,]2 [E,B,]2!ped-up! |!ped! .A,,,2 [A,E]2 [A,E]2!ped-up! | %106
!ped! D,2 [D,A,D]2 [D,A,D]2!ped-up! |!ped! A,,2 [E,A,C]2 [E,A,C]2!ped-up! | %108
!ped! D,,2 [D,A,D]2 [D,A,D]2!ped-up! |!ped! .A,,2 A,2 [A,E]2!ped-up! | %110
!ped! D,2 [A,D]2 [D,A,D]2!ped-up! |!ped! .G,,2 [B,E]2 [E,B,E]2!ped-up! | %112
!ped! A,,2 [A,E]2 [A,E]2!ped-up! |!ped! D,,2 [D,A,D]2 [D,A,D]2-!ped-up! | %114
!ped! [D,A,D]2 [D,A,D]2 [D,A,D]2!ped-up! |!ped! A,,2 [E,A,C]2 [E,A,C]2!ped-up! | %116
!ped! D,,2 [D,A,D]2 [D,A,D]2!ped-up! |!ped! A,,2 [A,C]2 [A,-E]2!ped-up! | %118
!ped! [D,A,]2 [A,D]2 [D,A,D]2!ped-up! |!ped! G,,2 [B,E]2 [E,B,E]2!ped-up! | %120
!ped! A,,2 [A,E]2 [A,E]2!ped-up! |!ped! D,,2 [D,A,D]2 [D,A,D]2!ped-up! | [D,A,]2 [D,=C]2 [D,B,]2 | %123
 [D,G,]2 [D,_B,]2 [D,A,]2 | [D,A,]2 [D,=C]2 [D,=B,]2 | [D,=G,]2 [D,_B,]2 [D,A,]2 | %126
 [D,F,]2 [D,A,]2 [D,^G,]2 | [D,E,]2 [D,=G,]2 [D,F,]2 | [D,F,]2 [D,A,]2 [D,^G,]2 | %129
 [D,E,]2 [D,=G,]2 [D,F,]2 | [D,,A,,]2 [D,,=C,]2 [D,,B,,]2 | [D,,=G,,]2 [D,,_B,,]2 [D,,A,,]2 | %132
 [D,,A,,]2 [D,,=C,]2 [D,,=B,,]2 | (=E,=G,) G,{/A,}G, (F,D,-) | %134
!ped! [D,A,]2 [D,A,]2[K:treble] !>![DA]2- | [DA]6- | !fermata![DA]6!ped-up! |] %137
V:4
 x2 | x6 | x6 | x6 | x6 | x6 | x6 | x6 | x6 | x6 | x6 | x6 | x6 | x6 | x6 | x6 | x6 | x6 | x6 | %19
 x6 | x6 | x6 | x6 | x6 | x6 | x6 | x6 | x6 | x6 | x6 | x6 | x6 | x6 | x6 | x6 | x6 | x6 | x6 | %38
 x6 | x6 | x6 | x6 | x6 | x6 | x6 | x6 | x6 | x6 | x6 ||[K:Bb] x6 | x6 | x6 | x6 | x6 | x6 | x6 | %56
 x6 | x6 | x6 | x6 | x6 | x6 | x6 | x6 | x6 |: x2 G4 | x2 A4 | x2 G4 | x2 A4 | x2 G4 | x2 A4 | %71
 x2 G4 |1 x2 A4 :|2 x2 G4 ||[K:D] x6 | x6 | x6 | x6 | x6 | x6 | x6 | x6 | x6 | x6 | x6 | x6 | x6 | %87
 x6 | x6 | x6 | x6 | x6 | x6 | x6 | x6 | x6 | x6 | x6 | x6 | x6 | x6 | x6 | x6 | x6 | x6 | x4 =G2 | %106
 x6 | x6 | x6 | x6 | x6 | x6 | x6 | x6 | x6 | x6 | x6 | x6 | x6 | x6 | x6 | x6 | x6 | x6 | x6 | %125
 x6 | x6 | x6 | x6 | x6 | x6 | x6 | x6 | x6 | x6 |!8va(! x6 | x6!8va)! |] %137
V:5
 x2 | x6 | x6 | x6 | x6 | x6 | x6 | x6 | x6 | x6 | x6 | x6 | x6 | x6 | x6 | x6 | x6 | x6 | x6 | %19
 x6 | x6 | x6 | x6 | x6 | x6 | x6 | x6 | x6 | x6 | x6 | x6 | x6 | x6 | x6 | x6 | x6 | x6 | x6 | %38
 x6 | x6 | x6 | x6 | x6 | x6 | x6 | x6 | x6 | x6 | x6 ||[K:Bb] x6 | x6 | x6 | x6 | x6 | x6 | x6 | %56
 x6 | x6 | x6 | x6 | x6 | x6 | x6 | x6 | x6 |: x6 | x6 | x6 | x6 | x6 | x6 | x6 |1 x6 :|2 x6 || %74
[K:D] x6 | x6 | x6 | x6 | x6 | x6 | x6 | x6 | x6 | x6 | x6 | x6 | x6 | x6 | x6 | x6 | x6 | x6 | %92
 x6 | x6 | x6 | x6 | x6 | x6 | x6 | x6 | x6 | x6 | x6 | x6 | x6 | x6 | x6 | x6 | x6 | x6 | x6 | %111
 x6 | x6 | x6 | x6 | x6 | x6 | x6 | x6 | x6 | x6 | x6 | x6 | x6 | x6 | x6 | x6 | x6 | x6 | x6 | %130
 x6 | x6 | x6 | [D,,=G,,]2 [D,,_B,,]2 [D,,A,,]2 | [D,,A,,]2 x2[K:treble] x2 | x6 | x6 |] %137

